trunk/public/assets/images/icons/green/pause/rescue.svg

<svg width="16" height="16" xmlns="http://www.w3.org/2000/svg" viewBox="0 0 16 16" shape-rendering="geometricPrecision" fill="#00962d"><defs><mask id="a"><rect fill="#fff" width="100%" height="100%"/><path fill="#000" d="M13.135-1H9.585v7.956H16V-1z"/></mask></defs><g fill="#cb1800"><path d="M10.585 0h1.55v5.956h-1.55zM13.45 0H15v5.956h-1.55z"/></g><g mask="url(#a)"><path d="M6.35 5.582c.47-.322 1.037-.51 1.65-.51.612 0 1.18.19 1.65.51l1.472-1.47c-.856-.688-1.94-1.1-3.122-1.1s-2.266.412-3.122 1.1L6.35 5.58zM5.583 6.35l-1.47-1.472C3.422 5.733 3.01 6.818 3.01 8s.414 2.267 1.1 3.12l1.472-1.47c-.32-.47-.51-1.037-.51-1.65s.19-1.18.51-1.65z"/><g><path d="M10.418 9.65l1.47 1.47c.687-.854 1.1-1.938 1.1-3.12 0-1.182-.413-2.267-1.1-3.122l-1.472 1.47c.324.47.512 1.04.512 1.652s-.188 1.18-.51 1.65zM9.65 10.418c-.47.32-1.037.51-1.65.51s-1.18-.19-1.65-.51l-1.472 1.47c.855.688 1.94 1.1 3.122 1.1s2.267-.412 3.122-1.1l-1.47-1.47z"/></g><g><path d="M7.934 14.81c-1.06 0-2.058-.417-2.814-1.173L2.364 10.88C.824 9.343.8 6.863 2.31 5.354L5.353 2.31c.72-.723 1.684-1.12 2.713-1.12 1.058 0 2.058.416 2.814 1.172l2.757 2.756c.744.744 1.16 1.728 1.173 2.77.012 1.046-.386 2.025-1.118 2.758l-3.045 3.045c-.72.722-1.685 1.12-2.713 1.12zm.133-12.62c-.762 0-1.475.293-2.006.825L3.017 6.06c-1.12 1.12-1.095 2.964.054 4.114l2.756 2.756c1.113 1.113 3.028 1.14 4.113.055l3.044-3.045c.54-.54.834-1.265.825-2.04-.01-.778-.322-1.515-.88-2.073L10.173 3.07c-.568-.567-1.316-.88-2.107-.88z"/></g></g></svg>

<?xml version="1.0"?><!DOCTYPE svg PUBLIC "-//W3C//DTD SVG 1.1//EN" "http://www.w3.org/Graphics/SVG/1.1/DTD/svg11.dtd"><svg width="16px" height="16px" xmlns="http://www.w3.org/2000/svg" viewBox="0 0 16 16" shape-rendering="geometricPrecision" fill="#00962d"><defs><mask id="pause-path"><rect fill="#fff" width="100%" height="100%"/><polygon points="13.135,-1 12.45,-1 9.585,-1 9.585,6.956 12.45,6.956 13.135,6.956 16,6.956 16,-1 " fill="#000"/></mask></defs><g fill="#cb1800"><g><rect x="10.585" y="0" width="1.55" height="5.956"/></g><g><rect x="13.45" y="0" width="1.55" height="5.956"/></g></g><g mask="url(#pause-path)"><g><g><g><path d="M6.35,5.582C6.819,5.26,7.387,5.072,8,5.072c0.612,0,1.181,0.189,1.651,0.51l1.471-1.47 C10.266,3.424,9.182,3.011,8,3.011c-1.182,0-2.266,0.413-3.122,1.1L6.35,5.582z"/><path d="M5.583,6.349L4.112,4.878C3.424,5.733,3.011,6.818,3.011,8c0,1.182,0.413,2.267,1.1,3.121l1.471-1.471 C5.261,9.181,5.072,8.613,5.072,8C5.072,7.387,5.261,6.819,5.583,6.349z"/></g><g><path d="M10.418,9.651l1.47,1.47c0.687-0.855,1.1-1.939,1.1-3.121c0-1.182-0.413-2.267-1.101-3.122l-1.471,1.471 C10.74,6.819,10.928,7.387,10.928,8S10.74,9.181,10.418,9.651z"/><path d="M9.651,10.418C9.181,10.739,8.613,10.928,8,10.928c-0.613,0-1.181-0.189-1.651-0.51l-1.471,1.471 c0.855,0.687,1.94,1.1,3.122,1.1c1.182,0,2.267-0.413,3.122-1.101L9.651,10.418z"/></g></g><g><path d="M7.934,14.81c-1.059,0-2.058-0.417-2.814-1.173l-2.756-2.756C0.824,9.342,0.8,6.862,2.309,5.353l3.045-3.044 C6.074,1.587,7.038,1.19,8.067,1.19c1.058,0,2.058,0.416,2.814,1.172l2.756,2.756c0.744,0.744,1.16,1.728,1.173,2.77 c0.012,1.046-0.386,2.025-1.118,2.758l-3.045,3.045C9.926,14.412,8.962,14.81,7.934,14.81z M8.067,2.19 c-0.762,0-1.475,0.293-2.006,0.825L3.016,6.06C1.896,7.179,1.921,9.024,3.07,10.174l2.756,2.756 c1.113,1.113,3.028,1.141,4.113,0.055l3.045-3.045c0.541-0.54,0.834-1.265,0.825-2.039c-0.009-0.779-0.321-1.516-0.88-2.074 L10.174,3.07C9.606,2.503,8.858,2.19,8.067,2.19z"/></g></g></g></svg>
